X: 1
T:Plant en Chou, Step & Fetch Her
M:2/2
L:1/8
C:Auvergne
S:en bouge
K:G
B2 A2 GFGA|c2 B2 A4|dedc BABc| B2A2B2GA|B2 A2 GFGA| c2 B2 A4|dedc BABc|B
2 A2 G4||
B2 B2 c3B|AGAB G4|A2 A2 BcBA| G2 F2 E4|EFGE B2 B2| AGAB c2c2| EFGA BcBA|
G2 A2 B4||
B2 B2 e3d|cBAc B4| EFGA BcBA|G2 A2 B4|B2 B2 e3d| cBAc B4| EFGA BcBA| G2
 F2 E4||
